icons-rebrand/svg/active-speaker-light.svg

<svg width="32" height="32" viewBox="0 0 32 32" fill="none" xmlns="http://www.w3.org/2000/svg">
<path d="M9.99985 21.5001C9.90154 21.5003 9.80535 21.4715 9.72332 21.4173C9.64128 21.3631 9.57704 21.286 9.53862 21.1955C9.50021 21.105 9.48932 21.0052 9.50732 20.9085C9.52533 20.8119 9.57142 20.7227 9.63985 20.6521C10.2226 20.0491 10.6842 19.3399 10.9998 18.5631C11.6652 16.9192 11.6652 15.081 10.9998 13.4371C10.6841 12.66 10.2225 11.9505 9.63985 11.3471C9.59393 11.2999 9.55777 11.2442 9.53344 11.183C9.50912 11.1218 9.49711 11.0565 9.4981 10.9907C9.4991 10.9249 9.51308 10.8599 9.53923 10.7995C9.56539 10.7391 9.60322 10.6845 9.65054 10.6387C9.69787 10.593 9.75376 10.557 9.81501 10.5329C9.87626 10.5088 9.94166 10.4971 10.0075 10.4983C10.0733 10.4996 10.1382 10.5138 10.1985 10.5402C10.2588 10.5665 10.3133 10.6046 10.3588 10.6521C11.0299 11.3468 11.5618 12.1635 11.9258 13.0581C12.6902 14.9449 12.6902 17.0552 11.9258 18.9421C11.562 19.8365 11.0301 20.6529 10.3588 21.3471C10.3123 21.3956 10.2565 21.4343 10.1946 21.4606C10.1327 21.4869 10.0661 21.5003 9.99885 21.5001H9.99985ZM16.9998 28.5001C16.9007 28.5002 16.8037 28.4709 16.7213 28.4159C16.6388 28.3608 16.5746 28.2825 16.5368 28.1909C16.499 28.0992 16.4892 27.9984 16.5088 27.9012C16.5284 27.8041 16.5765 27.7149 16.6468 27.6451C18.1591 26.1469 19.3655 24.3689 20.1988 22.4101C21.0572 20.382 21.4995 18.2023 21.4995 16.0001C21.4995 13.7979 21.0572 11.6181 20.1988 9.59007C19.3652 7.63115 18.1588 5.85287 16.6468 4.35407C16.5555 4.26003 16.5047 4.13386 16.5054 4.00274C16.5062 3.87162 16.5584 3.74604 16.6509 3.65306C16.7433 3.56008 16.8686 3.50714 16.9997 3.50565C17.1308 3.50415 17.2573 3.55422 17.3518 3.64507C18.9556 5.23436 20.2351 7.12036 21.1188 9.19807C22.0301 11.3499 22.4996 13.6628 22.4996 15.9996C22.4996 18.3363 22.0301 20.6493 21.1188 22.8011C20.2351 24.8788 18.9557 26.7649 17.3518 28.3541C17.2584 28.4473 17.1319 28.4998 16.9998 28.5001Z" fill="#0F0F0F"/>
<path d="M13.5002 25.5C13.4025 25.5001 13.307 25.4715 13.2254 25.4179C13.1438 25.3642 13.0797 25.2879 13.041 25.1982C13.0023 25.1086 12.9906 25.0096 13.0076 24.9134C13.0245 24.8172 13.0692 24.7281 13.1362 24.657C13.4342 24.34 13.7142 24.007 13.9762 23.661C14.6428 22.7736 15.1877 21.801 15.5962 20.769C16.8007 17.7034 16.8007 14.2956 15.5962 11.23C15.1856 10.1936 14.6373 9.21717 13.9662 8.32702C13.7074 7.98407 13.4303 7.65526 13.1362 7.34202C13.0497 7.24475 13.0045 7.11757 13.0103 6.98753C13.0161 6.85749 13.0724 6.73483 13.1672 6.64562C13.262 6.55642 13.3879 6.5077 13.518 6.50983C13.6482 6.51196 13.7724 6.56477 13.8642 6.65702C14.1822 6.99702 14.4832 7.35302 14.7642 7.72402C15.4897 8.68586 16.0823 9.74101 16.5262 10.861C17.8243 14.1637 17.8243 17.8353 16.5262 21.138C16.0841 22.2528 15.4949 23.3035 14.7742 24.262C14.491 24.6388 14.1868 24.9993 13.8632 25.342C13.8168 25.3919 13.7606 25.4316 13.6981 25.4588C13.6357 25.486 13.5683 25.5 13.5002 25.5Z" fill="#0F0F0F"/>
</svg>

<svg width="32" height="32" viewBox="0 0 32 32" fill="none" xmlns="http://www.w3.org/2000/svg"><path d="M10 21.5a.5.5 0 0 1-.36-.848A6.558 6.558 0 0 0 11 18.563a6.831 6.831 0 0 0 0-5.126 6.568 6.568 0 0 0-1.36-2.09.5.5 0 1 1 .719-.695 7.571 7.571 0 0 1 1.567 2.406 7.836 7.836 0 0 1 0 5.884 7.555 7.555 0 0 1-1.567 2.405.496.496 0 0 1-.36.153zM17 28.5a.5.5 0 0 1-.353-.855 16.416 16.416 0 0 0 3.552-5.235 16.445 16.445 0 0 0 0-12.82 16.435 16.435 0 0 0-3.552-5.236.5.5 0 0 1 .705-.709 17.414 17.414 0 0 1 3.767 5.553 17.442 17.442 0 0 1 0 13.603 17.41 17.41 0 0 1-3.767 5.553.5.5 0 0 1-.352.146z" fill="#0F0F0F"/><path d="M13.5 25.5a.5.5 0 0 1-.364-.843c.298-.317.578-.65.84-.996a12.435 12.435 0 0 0 1.62-2.892 13.042 13.042 0 0 0 0-9.539 12.422 12.422 0 0 0-1.63-2.903 11.999 11.999 0 0 0-.83-.985.5.5 0 0 1 .728-.685c.318.34.619.696.9 1.067a13.42 13.42 0 0 1 1.762 3.137 14.047 14.047 0 0 1 0 10.277 13.45 13.45 0 0 1-1.752 3.124 12.6 12.6 0 0 1-.911 1.08.496.496 0 0 1-.363.158z" fill="#0F0F0F"/></svg>
